X: 35388
T: Ross'
R: reel
M: 4/4
K: Emajor
G2G2 BGFE|B,CEF G2FE|F2FG FECE|AFGE FECE|
G2G2 BGFE|B,CEF G2FE|B,CEB, CEB,C|1 EB,CE B,CEB,:|2 EB,CE F4||
B3c eB (3BBB|eBef gB (3BBB|f3g ac (3ccc|acgc fcec|
B3c eB (3BBB|eBeg b4|c'3b (3c'd'e' bg|fagf ecBc|
B3c eB (3BBB|eBef gB (3BBB|f3g ac (3ccc|acbc c'cd'b|
e'3d' e'c'bg|(3efg be c2ec|BceB ceBc|eBcf e4||

